src/icons/svgs/24/bell.svg

<svg width="24" height="24" viewBox="0 0 24 24" fill="none" xmlns="http://www.w3.org/2000/svg">
<path d="M20.6521 15.7985C19.8768 15.0063 18.4225 13.8143 18.4225 9.92188C18.4225 6.96069 16.2379 4.59365 13.2843 4.01475V3.21875C13.2843 2.54768 12.7066 2 11.9988 2C11.2909 2 10.7133 2.54768 10.7133 3.21875V4.01398C7.76052 4.59441 5.57631 6.95879 5.57631 9.92188C5.57631 13.8143 4.12003 15.0063 3.34669 15.7985C3.10545 16.0461 3 16.3394 3 16.625C3.00502 17.2488 3.52225 17.8438 4.29076 17.8438H19.7092C20.4773 17.8438 20.9948 17.2488 21 16.625C20.9976 16.3394 20.8931 16.0461 20.6521 15.7985ZM5.71169 16.0156C6.56537 14.9492 7.4994 13.182 7.4994 9.94473V9.92188C7.4994 7.56436 9.51207 5.65625 11.9988 5.65625C14.4855 5.65625 16.4982 7.56512 16.4982 9.92188V9.94568C16.4982 13.182 17.4302 14.9492 18.2859 16.0156H5.71169ZM11.9626 21.5C13.4209 21.5 14.5699 20.4107 14.5699 19.0625H9.42771C9.42771 20.4107 10.5767 21.5 11.9626 21.5Z" fill="black"/>
</svg>

<svg width="24" height="24" viewBox="0 0 24 24" xmlns="http://www.w3.org/2000/svg">
    <path d="M20.652 15.799c-.775-.793-2.23-1.985-2.23-5.877 0-2.961-2.184-5.328-5.138-5.907v-.796C13.284 2.548 12.707 2 12 2s-1.286.548-1.286 1.219v.795c-2.952.58-5.137 2.945-5.137 5.908 0 3.892-1.456 5.084-2.23 5.877-.24.247-.346.54-.346.826.005.624.522 1.219 1.29 1.219h15.42c.767 0 1.285-.595 1.29-1.219a1.184 1.184 0 0 0-.348-.826Zm-14.94.217c.853-1.067 1.787-2.834 1.787-6.071v-.023c0-2.358 2.013-4.266 4.5-4.266 2.486 0 4.5 1.91 4.5 4.266v.024c0 3.236.931 5.003 1.787 6.07H5.712Zm6.25 5.484c1.459 0 2.608-1.09 2.608-2.438H9.428c0 1.349 1.149 2.438 2.535 2.438Z"/>
</svg>
